src/components/icon/icons/table.svg

<svg xmlns="http://www.w3.org/2000/svg" xml:space="preserve" width="70" height="70"><path d="m58.821 12.551-9.985-8.492c-.75-.75-1.563-1.476-2.623-1.476H14.4c-2.209 0-4.817 2.4-4.817 4.609v56c0 2.209 1.608 3.391 3.817 3.391h43c2.209 0 3.183-1.182 3.183-3.391V15.379c0-1.061-.012-2.078-.762-2.828zm-2.775 2.032h-7.463V8.229l7.463 6.354zm-.463 48h-42v-56h33v8.877c0 .553.281 1.123.834 1.123h8.166v46z"/><path d="M49.583 21.583a1 1 0 0 0-1-1h-28a1 1 0 0 0-1 1v31a1 1 0 0 0 1 1h28a1 1 0 0 0 1-1v-31zm-20 24v-4h13v4h-13zm13 2v4h-13v-4h13zm0-8h-13v-5h13v5zm2-5h3v5h-3v-5zm-17 5h-6v-5h6v5zm-6-7v-4h6v4h-6zm0 9h6v4h-6v-4zm23 0h3v4h-3v-4zm3-9h-3v-4h3v4zm-5 0h-13v-4h13v4zm-13-6v-4h13v4h-13zm-2-4v4h-6v-4h6zm-6 25h6v4h-6v-4zm23 4v-4h3v4h-3zm3-25h-3v-4h3v4z"/></svg>

<?xml version="1.0" encoding="utf-8"?>
<!-- Generator: Adobe Illustrator 16.0.0, SVG Export Plug-In . SVG Version: 6.00 Build 0)  -->
<!DOCTYPE svg PUBLIC "-//W3C//DTD SVG 1.1//EN" "http://www.w3.org/Graphics/SVG/1.1/DTD/svg11.dtd">
<svg version="1.1" id="Layer_1" xmlns="http://www.w3.org/2000/svg" xmlns:xlink="http://www.w3.org/1999/xlink" x="0px" y="0px"
	 width="70px" height="70px" viewBox="0 0 70 70" enable-background="new 0 0 70 70" xml:space="preserve">
<g>
	<path d="M58.821,12.551l-9.985-8.492c-0.75-0.75-1.563-1.476-2.623-1.476H14.4c-2.209,0-4.817,2.4-4.817,4.609v56
		c0,2.209,1.608,3.391,3.817,3.391h43c2.209,0,3.183-1.182,3.183-3.391V15.379C59.583,14.318,59.571,13.301,58.821,12.551z
		 M56.046,14.583h-7.463V8.229L56.046,14.583z M55.583,62.583h-42v-56h33v8.877c0,0.553,0.281,1.123,0.834,1.123h8.166V62.583z"/>
	<path d="M49.583,21.583c0-0.552-0.447-1-1-1h-28c-0.552,0-1,0.448-1,1v31c0,0.553,0.448,1,1,1h28c0.553,0,1-0.447,1-1V21.583z
		 M29.583,45.583v-4h13v4H29.583z M42.583,47.583v4h-13v-4H42.583z M42.583,39.583h-13v-5h13V39.583z M44.583,34.583h3v5h-3V34.583z
		 M27.583,39.583h-6v-5h6V39.583z M21.583,32.583v-4h6v4H21.583z M21.583,41.583h6v4h-6V41.583z M44.583,41.583h3v4h-3V41.583z
		 M47.583,32.583h-3v-4h3V32.583z M42.583,32.583h-13v-4h13V32.583z M29.583,26.583v-4h13v4H29.583z M27.583,22.583v4h-6v-4H27.583z
		 M21.583,47.583h6v4h-6V47.583z M44.583,51.583v-4h3v4H44.583z M47.583,26.583h-3v-4h3V26.583z"/>
</g>
</svg>
